jsapp/svg-icons/pins.svg

<?xml version="1.0" encoding="UTF-8"?>
<svg width="40px" height="40px" viewBox="0 0 40 40" version="1.1" xmlns="http://www.w3.org/2000/svg" xmlns:xlink="http://www.w3.org/1999/xlink">
    <!-- Generator: Sketch 50.2 (55047) - http://www.bohemiancoding.com/sketch -->
    <title>Icons/pins</title>
    <desc>Created with Sketch.</desc>
    <defs>
        <path d="M14,12 C11.794,12 10,13.794 10,16 C10,18.979 12.289,22.384 14,24.667 C14.119,24.509 14.795,23.608 14.898,23.465 C14.534,22.602 14.26,21.771 14.117,21.019 C14.078,21.083 14.038,21.153 14,21.214 C13.108,19.781 12,17.62 12,16 C12,14.898 12.897,14 14,14 C14.959,14 15.76,14.679 15.954,15.579 C16.461,15.115 17.045,14.731 17.69,14.462 C17.086,13.018 15.661,12 14,12 M26,12 C24.339,12 22.914,13.018 22.31,14.462 C22.955,14.731 23.539,15.115 24.046,15.579 C24.24,14.679 25.042,14 26,14 C27.103,14 28,14.898 28,16 C28,17.615 26.891,19.778 26,21.214 C25.961,21.153 25.922,21.084 25.883,21.021 C25.739,21.771 25.466,22.602 25.102,23.464 C25.221,23.63 25.877,24.502 26,24.667 C27.711,22.384 30,18.985 30,16 C30,13.794 28.206,12 26,12 M19.9996,25.2144 C19.1076,23.7804 17.9996,21.6194 17.9996,20.0004 C17.9996,18.8984 18.8966,18.0004 19.9996,18.0004 C21.1036,18.0004 21.9996,18.8984 21.9996,20.0004 C21.9996,21.6154 20.8916,23.7784 19.9996,25.2144 M19.9996,16.0004 C17.7946,16.0004 15.9996,17.7944 15.9996,20.0004 C15.9996,22.9794 18.2926,26.3894 19.9996,28.6664 C21.7146,26.3804 23.9996,22.9824 23.9996,20.0004 C23.9996,17.7944 22.2056,16.0004 19.9996,16.0004" id="path-1"></path>
    </defs>
    <g id="Icons/pins" stroke="none" stroke-width="1" fill="none" fill-rule="evenodd">
        <mask id="mask-2" fill="white">
            <use xlink:href="#path-1"></use>
        </mask>
        <use id="Mask" fill="#000000" xlink:href="#path-1"></use>
    </g>
</svg>

<svg height="40" viewBox="0 0 40 40" width="40" xmlns="http://www.w3.org/2000/svg"><path d="m14 12c-2.206 0-4 1.794-4 4 0 2.979 2.289 6.384 4 8.667.119-.158.795-1.059.898-1.202-.364-.863-.638-1.694-.781-2.446-.039.064-.079.134-.117.195-.892-1.433-2-3.594-2-5.214 0-1.102.897-2 2-2 .959 0 1.76.679 1.954 1.579.507-.464 1.091-.848 1.736-1.117-.604-1.444-2.029-2.462-3.69-2.462m12 0c-1.661 0-3.086 1.018-3.69 2.462.645.269 1.229.653 1.736 1.117.194-.9.996-1.579 1.954-1.579 1.103 0 2 .898 2 2 0 1.615-1.109 3.778-2 5.214-.039-.061-.078-.13-.117-.193-.144.75-.417 1.581-.781 2.443.119.166.775 1.038.898 1.203 1.711-2.283 4-5.682 4-8.667 0-2.206-1.794-4-4-4m-6.0004 13.2144c-.892-1.434-2-3.595-2-5.214 0-1.102.897-2 2-2 1.104 0 2 .898 2 2 0 1.615-1.108 3.778-2 5.214m0-9.214c-2.205 0-4 1.794-4 4 0 2.979 2.293 6.389 4 8.666 1.715-2.286 4-5.684 4-8.666 0-2.206-1.794-4-4-4" fill-rule="evenodd"/></svg>
